X:12
T:Polska efter Niklas Larsson (EÖ12)
S:efter Niklas Larsson
B:EÖ, nr 12
O:Svarteborg, Bohuslän
R:Polska
Z:Nils L
M:3/4
L:1/8
K:D
(A2 d)d fa- | a>g bf/g/ af/g/ | ef (3geg (3geg | (Pf/e/f) df a2- | a2 Adfa- |
a>g (3bfg a>g | ef (3geg f>d | (3ABc d4 :: A2- Ad fd | (3cBA GA B>(B | A)B cd ef | 
((3geg) df a2- | a2 Adfd | (3cBA GA B(c/B/ | A)A/B/ cc/d/ e(e/f/) | (g/f/e/f/) d4 :|

